X:1
T:6 Sorrow Songs, Op.57
T:Oh, Roses for the flush of youth
T:To my Wife
T:Samuel Coleridge-Taylor
T:Christina Rossetti
T:6 Sorrow Songs, Op.57
T:3. Oh, Roses for the flush of youth 
T:Creative Commons copyright waiver (CC0 1.0 Universal) 
T:Creative Commons copyright waiver (CC0 1.0 Universal) 
T:Creative Commons copyright waiver (CC0 1.0 Universal) 
T:Creative Commons copyright waiver (CC0 1.0 Universal) 
C:Samuel Coleridge-Taylor
Z:Christina Rossetti
Z:Creative Commons copyright waiver (CC0 1.0 Universal)
%%score 1 { 2 | 3 }
L:1/8
Q:1/4=114
M:2/4
K:Ab
V:1 treble nm="Voice"
V:2 treble nm="Piano"
V:3 bass 
V:1
"^Molto moderato" z4 | z4 | z4 | z4 | z4 | z4 | z4 | z2!mf! c2 |!<(! c4-!<)! |!>(! c4!>)! | C2 z2 | %11
w: |||||||Oh|ro-||ses,|
 z4 | z4 | z4 | z4 | z4 | z4 | z4 | z4 | z4 | z4 | z4 | z4 | z4 | z4 | z4 | z4 | z4 || z4 | z4 | %30
w: |||||||||||||||||||
 z4 | z4 | z4 | z4 | z4 | z4 | z4 | z4 | z4 | z4 | z4 | z4 | z4 | z4 | z4 | z4 | z4 | z4 | z4 | %49
w: |||||||||||||||||||
 z4 | z4 | z4 | z4 | z4 | z4 | z4 | z4 | z4 | z4 | z4 |] %60
w: |||||||||||
V:2
!pp!!<(! ([Ac]2{Bc} (3[GB][FA][GB] | [Ac]2{Bc} (3[GB][FA][GB]) | !^![Ac]4-!<)! | [Ac]2 z2 | z4 | %5
 z4 | z4 | z4 | z4 | z4 | z4 | z4 | z4 | z4 | z4 | z4 | z4 | z4 | z4 | z4 | z4 | z4 | z4 | z4 | %24
 z4 | z4 | z4 | z4 || z4 | z4 | z4 | z4 | z4 | z4 | z4 | z4 | z4 | z4 | z4 | z4 | z4 | z4 | z4 | %43
 z4 | z4 | z4 | z4 | z4 | z4 | z4 | z4 | z4 | z4 | z4 | z4 | z4 | z4 | z4 | z4 | z4 |] %60
V:3
 z4 | z4 | z4 | z4 | z4 | z4 | z4 | z4 | z4 | z4 | z4 | z4 | z4 | z4 | z4 | z4 | z4 | z4 | z4 | %19
 z4 | z4 | z4 | z4 | z4 | z4 | z4 | z4 | z4 ||"^a tempo" z4 | z4 | z4 | z4 | z4 | z4 | z4 | z4 | %36
 z4 | z4 | z4 | z4 | z4 | z4 | z4 | z4 | z4 | z4 | z4 | z4 | z4 | z4 | z4 | z4 | z4 | z4 | z4 | %55
 z4 | z4 | z4 | z4 | z4 |] %60

